svg/file/paper_line.svg

<?xml version="1.0" encoding="UTF-8"?>
<svg width="24px" height="24px" viewBox="0 0 24 24" version="1.1" xmlns="http://www.w3.org/2000/svg" xmlns:xlink="http://www.w3.org/1999/xlink">
    <title>paper_line</title>
    <g id="页面-1" stroke="none" stroke-width="1" fill="none" fill-rule="evenodd">
        <g id="File" transform="translate(-816.000000, 0.000000)" fill-rule="nonzero">
            <g id="paper_line" transform="translate(816.000000, 0.000000)">
                 <path d="M24,0 L24,24 L0,24 L0,0 L24,0 Z M12.5934901,23.257841 L12.5819402,23.2595131 L12.5108777,23.2950439 L12.4918791,23.2987469 L12.4918791,23.2987469 L12.4767152,23.2950439 L12.4056548,23.2595131 C12.3958229,23.2563662 12.3870493,23.2590235 12.3821421,23.2649074 L12.3780323,23.275831 L12.360941,23.7031097 L12.3658947,23.7234994 L12.3769048,23.7357139 L12.4804777,23.8096931 L12.4953491,23.8136134 L12.4953491,23.8136134 L12.5071152,23.8096931 L12.6106902,23.7357139 L12.6232938,23.7196733 L12.6232938,23.7196733 L12.6266527,23.7031097 L12.609561,23.275831 C12.6075724,23.2657013 12.6010112,23.2592993 12.5934901,23.257841 L12.5934901,23.257841 Z M12.8583906,23.1452862 L12.8445485,23.1473072 L12.6598443,23.2396597 L12.6498822,23.2499052 L12.6498822,23.2499052 L12.6471943,23.2611114 L12.6650943,23.6906389 L12.6699349,23.7034178 L12.6699349,23.7034178 L12.678386,23.7104931 L12.8793402,23.8032389 C12.8914285,23.8068999 12.9022333,23.8029875 12.9078286,23.7952264 L12.9118235,23.7811639 L12.8776777,23.1665331 C12.8752882,23.1545897 12.8674102,23.1470016 12.8583906,23.1452862 L12.8583906,23.1452862 Z M12.1430473,23.1473072 C12.1332178,23.1423925 12.1221763,23.1452606 12.1156365,23.1525954 L12.1099173,23.1665331 L12.0757714,23.7811639 C12.0751323,23.7926639 12.0828099,23.8018602 12.0926481,23.8045676 L12.108256,23.8032389 L12.3092106,23.7104931 L12.3186497,23.7024347 L12.3186497,23.7024347 L12.3225043,23.6906389 L12.340401,23.2611114 L12.337245,23.2485176 L12.337245,23.2485176 L12.3277531,23.2396597 L12.1430473,23.1473072 Z" id="MingCute" fill-rule="nonzero"></path>
                <path d="M16,3 C17.597725,3 18.903664,4.24892392 18.9949075,5.82372764 L19,6 L19,16 L19.75,16 C20.39725,16 20.9295391,16.4918359 20.9935469,17.1221875 L21,17.25 L21,19 C21,20.597725 19.7511226,21.903664 18.1762773,21.9949075 L18,22 L8,22 C6.40232321,22 5.09633941,20.7511226 5.00509271,19.1762773 L5,19 L5,9 L3.25,9 C2.6027875,9 2.07046563,8.50812891 2.00645356,7.87780591 L2,7.75 L2,6 C2,4.40232321 3.24892392,3.09633941 4.82372764,3.00509271 L5,3 L16,3 Z M16,5 L7,5 L7,19 C7,19.5523 7.44772,20 8,20 C8.55228,20 9,19.5523 9,19 L9,17.25 C9,16.5596 9.55964,16 10.25,16 L17,16 L17,6 C17,5.44772 16.5523,5 16,5 Z M19,18 L11,18 L11,19 C11,19.3506 10.9398,19.6872 10.8293,20 L18,20 C18.5523,20 19,19.5523 19,19 L19,18 Z M12,12 C12.5523,12 13,12.4477 13,13 C13,13.5523 12.5523,14 12,14 L10,14 C9.44772,14 9,13.5523 9,13 C9,12.4477 9.44772,12 10,12 L12,12 Z M14,8 C14.5523,8 15,8.44772 15,9 C15,9.55228 14.5523,10 14,10 L10,10 C9.44772,10 9,9.55228 9,9 C9,8.44772 9.44772,8 10,8 L14,8 Z M5,5 C4.48716857,5 4.06449347,5.38604429 4.0067278,5.88337975 L4,6 L4,7 L5,7 L5,5 Z" id="形状" fill="#09244B"></path>
            </g>
        </g>
    </g>
</svg>

<svg xmlns="http://www.w3.org/2000/svg" width="24" height="24"><g fill="none" fill-rule="nonzero"><path d="M24 0v24H0V0h24ZM12.593 23.258l-.011.002-.071.035-.02.004-.014-.004-.071-.035c-.01-.004-.019-.001-.024.005l-.004.01-.017.428.005.02.01.013.104.074.015.004.012-.004.104-.074.012-.016.004-.017-.017-.427c-.002-.01-.009-.017-.017-.018Zm.265-.113-.013.002-.185.093-.01.01-.003.011.018.43.005.012.008.007.201.093c.012.004.023 0 .029-.008l.004-.014-.034-.614c-.003-.012-.01-.02-.02-.022Zm-.715.002a.023.023 0 0 0-.027.006l-.006.014-.034.614c0 .012.007.02.017.024l.015-.002.201-.093.01-.008.004-.011.017-.43-.003-.012-.01-.01-.184-.092Z"/><path fill="#09244B" d="M16 3a3 3 0 0 1 2.995 2.824L19 6v10h.75c.647 0 1.18.492 1.244 1.122l.006.128V19a3 3 0 0 1-2.824 2.995L18 22H8a3 3 0 0 1-2.995-2.824L5 19V9H3.25a1.25 1.25 0 0 1-1.244-1.122L2 7.75V6a3 3 0 0 1 2.824-2.995L5 3h11Zm0 2H7v14a1 1 0 1 0 2 0v-1.75c0-.69.56-1.25 1.25-1.25H17V6a1 1 0 0 0-1-1Zm3 13h-8v1c0 .35-.06.687-.17 1H18a1 1 0 0 0 1-1v-1Zm-7-6a1 1 0 1 1 0 2h-2a1 1 0 1 1 0-2h2Zm2-4a1 1 0 1 1 0 2h-4a1 1 0 0 1 0-2h4ZM5 5a1 1 0 0 0-.993.883L4 6v1h1V5Z"/></g></svg>
